packages/icons/svg/24/Book.svg

<svg width="24" height="24" viewBox="0 0 24 24" fill="none" xmlns="http://www.w3.org/2000/svg">
<path fill-rule="evenodd" clip-rule="evenodd" d="M4.43597 5.18404C4 6.03969 4 7.15979 4 9.4V14.6C4 16.8402 4 17.9603 4.43597 18.816C4.81947 19.5686 5.43139 20.1805 6.18404 20.564C7.03969 21 8.15979 21 10.4 21H18.4648C19.3127 21 20 20.3127 20 19.4648C20 19.1617 19.9103 18.8654 19.7422 18.6132L19.6877 18.5315C19.2713 17.9069 19.2713 17.0931 19.6877 16.4685C19.8913 16.163 20 15.8041 20 15.437V6.2C20 5.0799 20 4.51984 19.782 4.09202C19.5903 3.71569 19.2843 3.40973 18.908 3.21799C18.4802 3 17.9201 3 16.8 3H10.4C8.15979 3 7.03969 3 6.18404 3.43597C5.43139 3.81947 4.81947 4.43139 4.43597 5.18404ZM9.5 7C9.22386 7 9 7.22386 9 7.5C9 7.77614 9.22386 8 9.5 8H15.5C15.7761 8 16 7.77614 16 7.5C16 7.22386 15.7761 7 15.5 7H9.5ZM9 9.5C9 9.22386 9.22386 9 9.5 9H15.5C15.7761 9 16 9.22386 16 9.5C16 9.77614 15.7761 10 15.5 10H9.5C9.22386 10 9 9.77614 9 9.5ZM7.5 16H17.6786C17.2743 16.9581 17.2743 18.0419 17.6786 19H8.4C8.03719 19 7.71482 18.9998 7.42572 18.9982C6.6318 18.9595 6 18.3035 6 17.5C6 16.6716 6.67157 16 7.5 16Z" fill="#858585"/>
</svg>

<svg width="24" height="24" fill="none" xmlns="http://www.w3.org/2000/svg" viewBox="0 0 24 24"><path fill-rule="evenodd" clip-rule="evenodd" d="M4.436 5.184C4 6.04 4 7.16 4 9.4v5.2c0 2.24 0 3.36.436 4.216a4 4 0 001.748 1.748C7.04 21 8.16 21 10.4 21h8.065a1.535 1.535 0 001.277-2.387l-.054-.081a1.86 1.86 0 010-2.064A1.86 1.86 0 0020 15.437V6.2c0-1.12 0-1.68-.218-2.108a2 2 0 00-.874-.874C18.48 3 17.92 3 16.8 3h-6.4c-2.24 0-3.36 0-4.216.436a4 4 0 00-1.748 1.748zM9.5 7a.5.5 0 000 1h6a.5.5 0 000-1h-6zM9 9.5a.5.5 0 01.5-.5h6a.5.5 0 010 1h-6a.5.5 0 01-.5-.5zM7.5 16h10.179a3.862 3.862 0 000 3H8.4c-.363 0-.685 0-.974-.002A1.5 1.5 0 017.5 16z" fill="currentColor"></path></svg>
